Papirus/22x22/panel/system-file-manager-panel.svg

<?xml version="1.0" encoding="UTF-8" standalone="no"?>
<svg xmlns:dc="http://purl.org/dc/elements/1.1/" xmlns:cc="http://creativecommons.org/ns#" xmlns:rdf="http://www.w3.org/1999/02/22-rdf-syntax-ns#" xmlns:svg="http://www.w3.org/2000/svg" xmlns="http://www.w3.org/2000/svg" version="1.0" width="22" height="22" id="svg2817">
    <metadata id="metadata57">
        <rdf:RDF>
            <cc:Work rdf:about="">
                <dc:format>
                    image/svg+xml
                </dc:format>
                <dc:type rdf:resource="http://purl.org/dc/dcmitype/StillImage"/>
                <dc:title/>
            </cc:Work>
        </rdf:RDF>
    </metadata>
    <path id="rect4203" d="M 3.8007813,3 C 3.3575812,3 3,3.3575812 3,3.8007812 L 3,18.199219 C 3,18.642419 3.3575812,19 3.8007813,19 L 18.199219,19 C 18.642419,19 19,18.642419 19,18.199219 L 19,3.8007812 C 19,3.3575812 18.642419,3 18.199219,3 L 3.8007813,3 Z M 5.6738281,5 16.326172,5 C 16.699199,5 17,5.2406411 17,5.5390625 L 17,9.460938 C 17,9.759359 16.699199,10 16.326172,10 L 5.6738281,10 C 5.3008015,10 5,9.759359 5,9.460938 L 5,5.5390625 C 5,5.2406411 5.3008015,5 5.6738281,5 Z M 9.25,7 C 9.1115028,7 9,7.111503 9,7.25 l 0,0.5 C 9,7.888497 9.1115028,8 9.25,8 l 3.5,0 C 12.888497,8 13,7.888497 13,7.75 l 0,-0.5 C 13,7.111503 12.888497,7 12.75,7 L 9.25,7 Z M 5.6738281,12 16.326172,12 C 16.699199,12 17,12.240641 17,12.539063 l 0,3.921875 C 17,16.759358 16.699199,17 16.326172,17 L 5.6738281,17 C 5.3008015,17 5,16.759357 5,16.460938 L 5,12.539063 C 5,12.240641 5.3008015,12 5.6738281,12 Z M 9.25,14 C 9.1115028,14 9,14.111503 9,14.25 l 0,0.5 C 9,14.888497 9.1115028,15 9.25,15 l 3.5,0 C 12.888497,15 13,14.888497 13,14.75 l 0,-0.5 C 13,14.111503 12.888497,14 12.75,14 l -3.5,0 z" style="fill:#ffffff;fill-opacity:1"/>
</svg>

<?xml version="1.0" encoding="UTF-8" standalone="no"?>
<svg id="svg2817" xmlns:rdf="http://www.w3.org/1999/02/22-rdf-syntax-ns#" xmlns="http://www.w3.org/2000/svg" height="22" width="22" version="1.0" xmlns:cc="http://creativecommons.org/ns#" xmlns:dc="http://purl.org/dc/elements/1.1/">
 <metadata id="metadata57">
  <rdf:RDF>
   <cc:Work rdf:about="">
    <dc:format>image/svg+xml</dc:format>
    <dc:type rdf:resource="http://purl.org/dc/dcmitype/StillImage"/>
    <dc:title/>
   </cc:Work>
  </rdf:RDF>
 </metadata>
 <path id="rect4203" fill="#fff" d="m3.8008 3c-0.4432 0-0.8008 0.3576-0.8008 0.8008v14.398c0 0.443 0.3576 0.801 0.8008 0.801h14.398c0.443 0 0.801-0.358 0.801-0.801v-14.398c0-0.4434-0.358-0.801-0.801-0.801h-14.398zm1.873 2h10.652c0.373 0 0.674 0.2406 0.674 0.5391v3.9218c0 0.2985-0.301 0.5391-0.674 0.5391h-10.652c-0.3732 0-0.674-0.2406-0.674-0.5391v-3.9218c0-0.2985 0.3008-0.5391 0.6738-0.5391zm3.5762 2c-0.1385 0-0.25 0.1115-0.25 0.25v0.5c0 0.1385 0.1115 0.25 0.25 0.25h3.5c0.138 0 0.25-0.1115 0.25-0.25v-0.5c0-0.1385-0.112-0.25-0.25-0.25h-3.5zm-3.5762 5h10.652c0.373 0 0.674 0.241 0.674 0.539v3.9219c0 0.298-0.301 0.539-0.674 0.539h-10.652c-0.3732 0-0.674-0.241-0.674-0.539v-3.922c0-0.298 0.3008-0.539 0.6738-0.539zm3.5762 2c-0.1385 0-0.25 0.112-0.25 0.25v0.5c0 0.138 0.1115 0.25 0.25 0.25h3.5c0.138 0 0.25-0.112 0.25-0.25v-0.5c0-0.138-0.112-0.25-0.25-0.25h-3.5z"/>
</svg>
